src/images/svg/symbols/jump-75-new.svg

<svg width="32" height="32" viewBox="0 0 32 32" fill="none" xmlns="http://www.w3.org/2000/svg">
<path fill-rule="evenodd" clip-rule="evenodd" d="M4 12V14H2V12H4Z" fill="#FF444F"/>
<path fill-rule="evenodd" clip-rule="evenodd" d="M8 12V16H6V12H8Z" fill="#FF444F"/>
<path fill-rule="evenodd" clip-rule="evenodd" d="M12 12V29H10V12H12Z" fill="#FF444F"/>
<path fill-rule="evenodd" clip-rule="evenodd" d="M16 26V32H14V26H16Z" fill="#FF444F"/>
<path fill-rule="evenodd" clip-rule="evenodd" d="M20 22V29H18V22H20Z" fill="#85ACB0"/>
<path fill-rule="evenodd" clip-rule="evenodd" d="M24 0V26H22V0H24Z" fill="#85ACB0"/>
<path fill-rule="evenodd" clip-rule="evenodd" d="M28 4V12H26V4H28Z" fill="#85ACB0"/>
<path fill-rule="evenodd" clip-rule="evenodd" d="M32 8V12H30V8H32Z" fill="#85ACB0"/>
<path d="M0 2C0 0.89543 0.895431 0 2 0H12C13.1046 0 14 0.895431 14 2V8C14 9.10457 13.1046 10 12 10H2C0.89543 10 0 9.10457 0 8V2Z" fill="#0E0E0E"/>
<path d="M3.53058 8.00002L5.40258 3.39202H3.65858V4.40802H2.64258V2.41602H6.59458V3.45602L4.79458 8.00002H3.53058Z" fill="white"/>
<path d="M11.1755 3.46402H8.63945L8.51945 5.23202H8.58345C8.63679 5.09868 8.69545 4.97868 8.75945 4.87202C8.82879 4.76002 8.90879 4.66668 8.99945 4.59202C9.09012 4.51202 9.19945 4.45068 9.32745 4.40802C9.45545 4.36535 9.60745 4.34402 9.78345 4.34402C10.0235 4.34402 10.2475 4.38402 10.4555 4.46402C10.6635 4.54402 10.8448 4.66135 10.9995 4.81602C11.1541 4.96535 11.2768 5.15202 11.3675 5.37602C11.4581 5.59468 11.5035 5.84268 11.5035 6.12002C11.5035 6.40268 11.4555 6.66668 11.3595 6.91202C11.2688 7.15202 11.1301 7.36002 10.9435 7.53602C10.7621 7.71202 10.5381 7.85068 10.2715 7.95202C10.0048 8.04802 9.70079 8.09602 9.35945 8.09602C9.08745 8.09602 8.84745 8.06668 8.63945 8.00802C8.43145 7.94935 8.24745 7.87202 8.08745 7.77602C7.92745 7.67468 7.78879 7.56002 7.67145 7.43202C7.55412 7.30402 7.45279 7.16802 7.36745 7.02402L8.23945 6.33602C8.36212 6.55468 8.50879 6.74135 8.67945 6.89602C8.85012 7.04535 9.07945 7.12002 9.36745 7.12002C9.65545 7.12002 9.87145 7.03735 10.0155 6.87202C10.1648 6.70668 10.2395 6.48802 10.2395 6.21602V6.15202C10.2395 5.89602 10.1648 5.69335 10.0155 5.54402C9.86612 5.39468 9.66079 5.32002 9.39945 5.32002C9.18079 5.32002 8.99945 5.36535 8.85545 5.45602C8.71679 5.54135 8.61012 5.62668 8.53545 5.71202L7.55145 5.57602L7.75945 2.41602H11.1755V3.46402Z" fill="white"/>
</svg>

<svg width="32" height="32" fill="none" xmlns="http://www.w3.org/2000/svg"><path fill-rule="evenodd" clip-rule="evenodd" d="M4 12v2H2v-2h2ZM8 12v4H6v-4h2ZM12 12v17h-2V12h2ZM16 26v6h-2v-6h2Z" fill="#FF444F"/><path fill-rule="evenodd" clip-rule="evenodd" d="M20 22v7h-2v-7h2ZM24 0v26h-2V0h2ZM28 4v8h-2V4h2ZM32 8v4h-2V8h2Z" fill="#85ACB0"/><path d="M0 2a2 2 0 0 1 2-2h10a2 2 0 0 1 2 2v6a2 2 0 0 1-2 2H2a2 2 0 0 1-2-2V2Z" fill="#0E0E0E"/><path d="m3.53 8 1.873-4.608H3.659v1.016H2.643V2.416h3.952v1.04L4.795 8H3.53ZM11.175 3.464H8.64l-.12 1.768h.064c.054-.133.112-.253.176-.36.07-.112.15-.205.24-.28.091-.08.2-.141.328-.184.128-.043.28-.064.456-.064.24 0 .465.04.673.12a1.602 1.602 0 0 1 .912.912c.09.219.136.467.136.744 0 .283-.048.547-.144.792-.091.24-.23.448-.416.624a1.94 1.94 0 0 1-.673.416c-.266.096-.57.144-.912.144-.272 0-.512-.03-.72-.088a2.261 2.261 0 0 1-.552-.232 2.043 2.043 0 0 1-.416-.344 2.457 2.457 0 0 1-.304-.408l.872-.688c.123.219.27.405.44.56.171.15.4.224.688.224.288 0 .504-.083.648-.248.15-.165.224-.384.224-.656v-.064c0-.256-.074-.459-.224-.608-.149-.15-.354-.224-.616-.224-.218 0-.4.045-.544.136-.138.085-.245.17-.32.256l-.984-.136.208-3.16h3.416v1.048Z" fill="#fff"/></svg>
